P3
8 8
255
45 35 55  45 35 55  50 40 60  50 40 60  55 45 65  55 45 65  60 50 70  60 50 70
50 40 60  50 40 60  55 45 65  55 45 65  60 50 70  60 50 70  65 55 75  65 55 75
55 45 65  55 45 65  90 70 65  110 85 75  110 85 75  90 70 65  70 60 80  70 60 80
60 50 70  60 50 70  105 80 70  190 145 120  190 145 120  105 80 70  75 65 85  75 65 85
65 55 75  65 55 75  110 85 75  195 150 125  195 150 125  110 85 75  80 70 90  80 70 90
70 60 80  70 60 80  95 75 70  120 90 80  120 90 80  95 75 70  85 75 95  85 75 95
75 65 85  75 65 85  80 70 90  80 70 90  85 75 95  85 75 95  90 80 100  90 80 100
80 70 90  80 70 90  85 75 95  85 75 95  90 80 100  90 80 100  95 85 105  95 85 105
