P3
8 8
255
30 40 60  30 40 60  35 45 65  35 45 65  40 50 70  40 50 70  45 55 75  45 55 75
35 45 65  35 45 65  40 50 70  40 50 70  45 55 75  45 55 75  50 60 80  50 60 80
40 50 70  40 50 70  80 70 65  100 85 75  100 85 75  80 70 65  55 65 85  55 65 85
45 55 75  45 55 75  95 80 70  180 145 120  180 145 120  95 80 70  60 70 90  60 70 90
50 60 80  50 60 80  100 85 75  185 150 125  185 150 125  100 85 75  65 75 95  65 75 95
55 65 85  55 65 85  85 75 70  110 90 80  110 90 80  85 75 70  70 80 100  70 80 100
60 70 90  60 70 90  65 75 95  65 75 95  70 80 100  70 80 100  75 85 105  75 85 105
65 75 95  65 75 95  70 80 100  70 80 100  75 85 105  75 85 105  80 90 110  80 90 110
